assets/1. Faces/Face screaming in fear/Color/face_screaming_in_fear_color.svg

<svg width="100%" height="100%" viewBox="0 0 32 32" fill="none" xmlns="http://www.w3.org/2000/svg">
<g clip-path="url(#clip0_31_1656)">
<path d="M15.9989 29.9978C25.3333 29.9978 29.9978 23.7303 29.9978 15.9989C29.9978 8.26751 25.3333 2 15.9989 2C6.66443 2 2 8.26751 2 15.9989C2 23.7303 6.66443 29.9978 15.9989 29.9978Z" fill="url(#paint0_radial_31_1656)"/>
<path d="M15.9989 29.9978C25.3333 29.9978 29.9978 23.7303 29.9978 15.9989C29.9978 8.26751 25.3333 2 15.9989 2C6.66443 2 2 8.26751 2 15.9989C2 23.7303 6.66443 29.9978 15.9989 29.9978Z" fill="url(#paint1_radial_31_1656)"/>
<path d="M15.9989 29.9978C25.3333 29.9978 29.9978 23.7303 29.9978 15.9989C29.9978 8.26751 25.3333 2 15.9989 2C6.66443 2 2 8.26751 2 15.9989C2 23.7303 6.66443 29.9978 15.9989 29.9978Z" fill="url(#paint2_radial_31_1656)" fill-opacity="0.6"/>
<circle cx="9" cy="13" r="5" fill="url(#paint3_radial_31_1656)"/>
<circle cx="19.5" cy="13.5" r="4.5" fill="url(#paint4_radial_31_1656)"/>
<circle cx="10.5" cy="11.5" r="4.5" fill="white"/>
<circle cx="21.5" cy="11.5" r="4.5" fill="white"/>
<rect x="13" y="18" width="6" height="9" rx="3" fill="url(#paint5_radial_31_1656)"/>
<g clip-path="url(#clip1_31_1656)">
<path fill-rule="evenodd" clip-rule="evenodd" d="M19.5655 29.6586C18.4639 29.8806 17.275 29.9978 15.9989 29.9978C9.15963 29.9978 4.82741 26.6332 3 21.7934L3 16H6V19L19.5655 29.6586Z" fill="url(#paint6_radial_31_1656)"/>
<g filter="url(#filter0_i_31_1656)">
<path d="M1 23.881V18.5C1 17.6716 1.67157 17 2.5 17C3.32843 17 4 17.6716 4 18.5V19.1407C4 19.6776 4.26829 20.1789 4.71495 20.4766L9.22817 23.4854C11.2335 24.8223 11.6183 27.6119 10.0498 29.4418C8.44672 31.3122 5.55328 31.3122 3.95015 29.4418L2.37902 27.6089C1.48914 26.5707 1 25.2484 1 23.881Z" fill="url(#paint7_linear_31_1656)"/>
</g>
<path fill-rule="evenodd" clip-rule="evenodd" d="M12.5 29.6586C13.6016 29.8806 14.7905 29.9978 16.0666 29.9978C22.9059 29.9978 27.2381 26.6332 29.0655 21.7934L29.0655 16H26.0655V19L12.5 29.6586Z" fill="url(#paint8_radial_31_1656)"/>
<g filter="url(#filter1_i_31_1656)">
<path d="M31.0655 23.881V18.5C31.0655 17.6716 30.3939 17 29.5655 17C28.7371 17 28.0655 17.6716 28.0655 18.5V19.1407C28.0655 19.6776 27.7972 20.1789 27.3505 20.4766L22.8373 23.4854C20.832 24.8223 20.4471 27.6119 22.0156 29.4418C23.6188 31.3122 26.5122 31.3122 28.1153 29.4418L29.6865 27.6089C30.5763 26.5707 31.0655 25.2484 31.0655 23.881Z" fill="url(#paint9_linear_31_1656)"/>
</g>
<rect x="28" y="18" width="3" height="8" fill="url(#paint10_radial_31_1656)"/>
</g>
</g>
<defs>
<filter id="filter0_i_31_1656" x="1" y="16" width="11.0172" height="14.8445" filterUnits="userSpaceOnUse" color-interpolation-filters="sRGB">
<feFlood flood-opacity="0" result="BackgroundImageFix"/>
<feBlend mode="normal" in="SourceGraphic" in2="BackgroundImageFix" result="shape"/>
<feColorMatrix in="SourceAlpha" type="matrix" values="0 0 0 0 0 0 0 0 0 0 0 0 0 0 0 0 0 0 127 0" result="hardAlpha"/>
<feOffset dx="1" dy="-1"/>
<feGaussianBlur stdDeviation="1"/>
<feComposite in2="hardAlpha" operator="arithmetic" k2="-1" k3="1"/>
<feColorMatrix type="matrix" values="0 0 0 0 0 0 0 0 0 0 0 0 0 0 0 0 0 0 0.12 0"/>
<feBlend mode="normal" in2="shape" result="effect1_innerShadow_31_1656"/>
</filter>
<filter id="filter1_i_31_1656" x="21.0483" y="16" width="11.0172" height="14.8445" filterUnits="userSpaceOnUse" color-interpolation-filters="sRGB">
<feFlood flood-opacity="0" result="BackgroundImageFix"/>
<feBlend mode="normal" in="SourceGraphic" in2="BackgroundImageFix" result="shape"/>
<feColorMatrix in="SourceAlpha" type="matrix" values="0 0 0 0 0 0 0 0 0 0 0 0 0 0 0 0 0 0 127 0" result="hardAlpha"/>
<feOffset dx="1" dy="-1"/>
<feGaussianBlur stdDeviation="1"/>
<feComposite in2="hardAlpha" operator="arithmetic" k2="-1" k3="1"/>
<feColorMatrix type="matrix" values="0 0 0 0 0 0 0 0 0 0 0 0 0 0 0 0 0 0 0.12 0"/>
<feBlend mode="normal" in2="shape" result="effect1_innerShadow_31_1656"/>
</filter>
<radialGradient id="paint0_radial_31_1656" cx="0" cy="0" r="1" gradientUnits="userSpaceOnUse" gradientTransform="translate(25.5 9) rotate(132.839) scale(37.5033)">
<stop stop-color="#FFF478"/>
<stop offset="0.474827" stop-color="#FFB02E"/>
<stop offset="1" stop-color="#F70A8D"/>
</radialGradient>
<radialGradient id="paint1_radial_31_1656" cx="0" cy="0" r="1" gradientUnits="userSpaceOnUse" gradientTransform="translate(16 49) rotate(-90) scale(51 64.9968)">
<stop offset="0.670495" stop-color="#BFB2DD" stop-opacity="0"/>
<stop offset="0.747649" stop-color="#A4AEEB"/>
<stop offset="0.811631" stop-color="#379EFF"/>
<stop offset="0.964059" stop-color="#1345B7"/>
</radialGradient>
<radialGradient id="paint2_radial_31_1656" cx="0" cy="0" r="1" gradientUnits="userSpaceOnUse" gradientTransform="translate(18 14) rotate(135) scale(41.0122)">
<stop offset="0.314853" stop-opacity="0"/>
<stop offset="1"/>
</radialGradient>
<radialGradient id="paint3_radial_31_1656" cx="0" cy="0" r="1" gradientUnits="userSpaceOnUse" gradientTransform="translate(12.8889 9.11111) rotate(135) scale(9.74236 5.49972)">
<stop offset="0.6341" stop-color="#392108"/>
<stop offset="1" stop-color="#C87928" stop-opacity="0"/>
</radialGradient>
<radialGradient id="paint4_radial_31_1656" cx="0" cy="0" r="1" gradientUnits="userSpaceOnUse" gradientTransform="translate(23 10) rotate(135) scale(8.13173 4.59049)">
<stop offset="0.415102" stop-color="#392108"/>
<stop offset="1" stop-color="#C87928" stop-opacity="0"/>
</radialGradient>
<radialGradient id="paint5_radial_31_1656" cx="0" cy="0" r="1" gradientUnits="userSpaceOnUse" gradientTransform="translate(16 29) rotate(-90) scale(11 7.33333)">
<stop offset="0.290336" stop-color="#F70A8D"/>
<stop offset="1" stop-color="#89029C"/>
</radialGradient>
<radialGradient id="paint6_radial_31_1656" cx="0" cy="0" r="1" gradientUnits="userSpaceOnUse" gradientTransform="translate(0.929313 26.9915) rotate(-35.9558) scale(9.35264 11.7708)">
<stop offset="0.576138" stop-color="#392108"/>
<stop offset="1" stop-color="#C87928" stop-opacity="0"/>
</radialGradient>
<linearGradient id="paint7_linear_31_1656" x1="6.5" y1="23.5" x2="0.5" y2="28" gradientUnits="userSpaceOnUse">
<stop stop-color="#FFD556"/>
<stop offset="0.428749" stop-color="#FBA73B"/>
<stop offset="0.839536" stop-color="#F07D54"/>
</linearGradient>
<radialGradient id="paint8_radial_31_1656" cx="0" cy="0" r="1" gradientUnits="userSpaceOnUse" gradientTransform="translate(30.5 28.5) rotate(-136.975) scale(10.2591 16.5675)">
<stop offset="0.577326" stop-color="#985600"/>
<stop offset="1" stop-color="#C87928" stop-opacity="0"/>
</radialGradient>
<linearGradient id="paint9_linear_31_1656" x1="30" y1="23" x2="20.5" y2="32.5" gradientUnits="userSpaceOnUse">
<stop stop-color="#FFD556"/>
<stop offset="0.34463" stop-color="#FFCA40"/>
<stop offset="0.615109" stop-color="#FBA73B"/>
<stop offset="0.839536" stop-color="#FF6E2E"/>
</linearGradient>
<radialGradient id="paint10_radial_31_1656" cx="0" cy="0" r="1" gradientUnits="userSpaceOnUse" gradientTransform="translate(29.5 21.2) rotate(90) scale(3.3 1.54688)">
<stop stop-color="#FFE045"/>
<stop offset="1" stop-color="#FFDE44" stop-opacity="0"/>
</radialGradient>
<clipPath id="clip0_31_1656">
<rect width="32" height="32" fill="white"/>
</clipPath>
<clipPath id="clip1_31_1656">
<rect width="32" height="32" fill="white"/>
</clipPath>
</defs>
</svg>

<svg width="100%" height="100%" viewBox="0 0 32 32" xmlns="http://www.w3.org/2000/svg"><g clip-path="url(#a)"><path fill="url(#b)" d="M15.999 29.998c9.334 0 13.999-6.268 13.999-14 0-7.73-4.665-13.998-14-13.998C6.665 2 2 8.268 2 15.999s4.664 13.999 13.999 13.999"/><path fill="url(#c)" d="M15.999 29.998c9.334 0 13.999-6.268 13.999-14 0-7.73-4.665-13.998-14-13.998C6.665 2 2 8.268 2 15.999s4.664 13.999 13.999 13.999"/><path fill="url(#d)" fill-opacity=".6" d="M15.999 29.998c9.334 0 13.999-6.268 13.999-14 0-7.73-4.665-13.998-14-13.998C6.665 2 2 8.268 2 15.999s4.664 13.999 13.999 13.999"/><circle cx="9" cy="13" r="5" fill="url(#e)"/><circle cx="19.5" cy="13.5" r="4.5" fill="url(#f)"/><circle cx="10.5" cy="11.5" r="4.5" fill="#fff"/><circle cx="21.5" cy="11.5" r="4.5" fill="#fff"/><rect width="6" height="9" x="13" y="18" fill="url(#g)" rx="3"/><g clip-path="url(#h)"><path fill="url(#i)" fill-rule="evenodd" d="M19.566 29.659a18 18 0 0 1-3.567.339c-6.84 0-11.172-3.365-12.999-8.205V16h3v3z" clip-rule="evenodd"/><g filter="url(#j)"><path fill="url(#k)" d="M1 23.881V18.5a1.5 1.5 0 0 1 3 0v.64c0 .538.268 1.039.715 1.337l4.513 3.008a4.017 4.017 0 1 1-5.278 5.957L2.38 27.609A5.73 5.73 0 0 1 1 23.88"/></g><path fill="url(#l)" fill-rule="evenodd" d="M12.5 29.659c1.102.222 2.29.339 3.567.339 6.839 0 11.171-3.365 12.999-8.205V16h-3v3z" clip-rule="evenodd"/><g filter="url(#m)"><path fill="url(#n)" d="M31.066 23.881V18.5a1.5 1.5 0 0 0-3 0v.64c0 .538-.269 1.039-.715 1.337l-4.514 3.008a4.017 4.017 0 1 0 5.278 5.957l1.572-1.833a5.73 5.73 0 0 0 1.378-3.728"/></g><path fill="url(#o)" d="M28 18h3v8h-3z"/></g></g><defs><radialGradient id="b" cx="0" cy="0" r="1" gradientTransform="rotate(132.839 10.786 10.065)scale(37.5033)" gradientUnits="userSpaceOnUse"><stop stop-color="#FFF478"/><stop offset=".475" stop-color="#FFB02E"/><stop offset="1" stop-color="#F70A8D"/></radialGradient><radialGradient id="c" cx="0" cy="0" r="1" gradientTransform="matrix(0 -51 64.9968 0 16 49)" gradientUnits="userSpaceOnUse"><stop offset=".67" stop-color="#BFB2DD" stop-opacity="0"/><stop offset=".748" stop-color="#A4AEEB"/><stop offset=".812" stop-color="#379EFF"/><stop offset=".964" stop-color="#1345B7"/></radialGradient><radialGradient id="d" cx="0" cy="0" r="1" gradientTransform="matrix(-29 29 -29 -29 18 14)" gradientUnits="userSpaceOnUse"><stop offset=".315" stop-opacity="0"/><stop offset="1"/></radialGradient><radialGradient id="e" cx="0" cy="0" r="1" gradientTransform="matrix(-6.88889 6.88889 -3.88889 -3.88889 12.889 9.111)" gradientUnits="userSpaceOnUse"><stop offset=".634" stop-color="#392108"/><stop offset="1" stop-color="#C87928" stop-opacity="0"/></radialGradient><radialGradient id="f" cx="0" cy="0" r="1" gradientTransform="matrix(-5.75 5.75 -3.24597 -3.24597 23 10)" gradientUnits="userSpaceOnUse"><stop offset=".415" stop-color="#392108"/><stop offset="1" stop-color="#C87928" stop-opacity="0"/></radialGradient><radialGradient id="g" cx="0" cy="0" r="1" gradientTransform="matrix(0 -11 7.33333 0 16 29)" gradientUnits="userSpaceOnUse"><stop offset=".29" stop-color="#F70A8D"/><stop offset="1" stop-color="#89029C"/></radialGradient><radialGradient id="i" cx="0" cy="0" r="1" gradientTransform="matrix(7.57068 -5.4915 6.91135 9.52811 .93 26.991)" gradientUnits="userSpaceOnUse"><stop offset=".576" stop-color="#392108"/><stop offset="1" stop-color="#C87928" stop-opacity="0"/></radialGradient><radialGradient id="l" cx="0" cy="0" r="1" gradientTransform="matrix(-7.49998 -6.99996 11.3043 -12.11177 30.5 28.5)" gradientUnits="userSpaceOnUse"><stop offset=".577" stop-color="#985600"/><stop offset="1" stop-color="#C87928" stop-opacity="0"/></radialGradient><radialGradient id="o" cx="0" cy="0" r="1" gradientTransform="matrix(0 3.3 -1.54688 0 29.5 21.2)" gradientUnits="userSpaceOnUse"><stop stop-color="#FFE045"/><stop offset="1" stop-color="#FFDE44" stop-opacity="0"/></radialGradient><linearGradient id="k" x1="6.5" x2=".5" y1="23.5" y2="28" gradientUnits="userSpaceOnUse"><stop stop-color="#FFD556"/><stop offset=".429" stop-color="#FBA73B"/><stop offset=".84" stop-color="#F07D54"/></linearGradient><linearGradient id="n" x1="30" x2="20.5" y1="23" y2="32.5" gradientUnits="userSpaceOnUse"><stop stop-color="#FFD556"/><stop offset=".345" stop-color="#FFCA40"/><stop offset=".615" stop-color="#FBA73B"/><stop offset=".84" stop-color="#FF6E2E"/></linearGradient><clipPath id="a"><path fill="#fff" d="M0 0h32v32H0z"/></clipPath><clipPath id="h"><path fill="#fff" d="M0 0h32v32H0z"/></clipPath><filter id="j" width="11.017" height="14.845" x="1" y="16" color-interpolation-filters="sRGB" filterUnits="userSpaceOnUse"><feFlood flood-opacity="0" result="BackgroundImageFix"/><feBlend in="SourceGraphic" in2="BackgroundImageFix" result="shape"/><feColorMatrix in="SourceAlpha" result="hardAlpha" values="0 0 0 0 0 0 0 0 0 0 0 0 0 0 0 0 0 0 127 0"/><feOffset dx="1" dy="-1"/><feGaussianBlur stdDeviation="1"/><feComposite in2="hardAlpha" k2="-1" k3="1" operator="arithmetic"/><feColorMatrix values="0 0 0 0 0 0 0 0 0 0 0 0 0 0 0 0 0 0 0.12 0"/><feBlend in2="shape" result="effect1_innerShadow_31_1656"/></filter><filter id="m" width="11.017" height="14.845" x="21.048" y="16" color-interpolation-filters="sRGB" filterUnits="userSpaceOnUse"><feFlood flood-opacity="0" result="BackgroundImageFix"/><feBlend in="SourceGraphic" in2="BackgroundImageFix" result="shape"/><feColorMatrix in="SourceAlpha" result="hardAlpha" values="0 0 0 0 0 0 0 0 0 0 0 0 0 0 0 0 0 0 127 0"/><feOffset dx="1" dy="-1"/><feGaussianBlur stdDeviation="1"/><feComposite in2="hardAlpha" k2="-1" k3="1" operator="arithmetic"/><feColorMatrix values="0 0 0 0 0 0 0 0 0 0 0 0 0 0 0 0 0 0 0.12 0"/><feBlend in2="shape" result="effect1_innerShadow_31_1656"/></filter></defs></svg>
